Adwaita++/actions/22/format-text-uppercase.svg

<svg height="22" viewBox="0 0 22 22" width="22" xmlns="http://www.w3.org/2000/svg">
  <path d="m11.214844 2-2.5000002 3h5.0000002zm-7.386719 4-2.828125 8h1.1425781l.9746094-2.285156h2.7226563l.875 2.285156h1.1425781l-2.5917969-8zm4.8867188 0v8h4.0000002a2.2857 2.2857 0 0 0 2.285156-2.285156 2.2857 2.2857 0 0 0 -1.533203-2.1542971 2.2857 2.2857 0 0 0 .390625-1.2753907 2.2857 2.2857 0 0 0 -2.285156-2.2851562zm1.1425781 1.1425781h1.7148441a1.1429 1.1429 0 0 1 1.142578 1.1425781 1.1429 1.1429 0 0 1 -1.142578 1.1425782h-1.7148441zm-5.3105469.0976563 1.0722656 3.3320316h-2.2558594zm5.3105469 3.3320316h2.8574221a1.1429 1.1429 0 0 1 1.142578 1.142578 1.1429 1.1429 0 0 1 -1.142578 1.142578h-2.8574221z" fill="#444" transform="translate(3 3)"/>
</svg>

<svg xmlns="http://www.w3.org/2000/svg" width="22" height="22" viewBox="0 0 22 22">
 <defs>
  <style id="current-color-scheme" type="text/css">
   .ColorScheme-Text { color:#444444; } .ColorScheme-Highlight { color:#4285f4; }
  </style>
 </defs>
 <path style="fill:currentColor" class="ColorScheme-Text" d="M 11.214844 2 L 8.7148438 5 L 13.714844 5 L 11.214844 2 z M 3.828125 6 L 1 14 L 2.1425781 14 L 3.1171875 11.714844 L 5.8398438 11.714844 L 6.7148438 14 L 7.8574219 14 L 5.265625 6 L 3.828125 6 z M 8.7148438 6 L 8.7148438 14 L 12.714844 14 A 2.2857 2.2857 0 0 0 15 11.714844 A 2.2857 2.2857 0 0 0 13.466797 9.5605469 A 2.2857 2.2857 0 0 0 13.857422 8.2851562 A 2.2857 2.2857 0 0 0 11.572266 6 L 8.7148438 6 z M 9.8574219 7.1425781 L 11.572266 7.1425781 A 1.1429 1.1429 0 0 1 12.714844 8.2851562 A 1.1429 1.1429 0 0 1 11.572266 9.4277344 L 9.8574219 9.4277344 L 9.8574219 7.1425781 z M 4.546875 7.2402344 L 5.6191406 10.572266 L 3.3632812 10.572266 L 4.546875 7.2402344 z M 9.8574219 10.572266 L 12.714844 10.572266 A 1.1429 1.1429 0 0 1 13.857422 11.714844 A 1.1429 1.1429 0 0 1 12.714844 12.857422 L 9.8574219 12.857422 L 9.8574219 10.572266 z" transform="translate(3 3)"/>
</svg>
